svgs/gps_test.svg

<svg width="192" height="192" viewBox="0 0 192 192" fill="none" xmlns="http://www.w3.org/2000/svg">
<path d="M45.0476 60.3079C49.3884 53.9426 54.9276 48.4603 61.3401 44.1844" stroke="black" stroke-width="8" stroke-miterlimit="10"/>
<path d="M39.6252 117.709C36.4563 110.419 34.7 102.375 34.7 93.9195C34.7 90.5138 34.9848 87.174 35.5329 83.9236" stroke="black" stroke-width="8" stroke-miterlimit="10"/>
<path d="M105.662 152.597C102.024 153.288 98.27 153.651 94.4312 153.651C79.8754 153.651 66.5357 148.444 56.1733 139.792" stroke="black" stroke-width="8" stroke-miterlimit="10"/>
<path d="M147.537 121.287C142.417 131.205 134.599 139.503 125.054 145.213" stroke="black" stroke-width="8" stroke-miterlimit="10"/>
<path d="M141.323 56.916C149.363 67.0907 154.162 79.9442 154.162 93.9195C154.162 95.8016 154.075 95.6984 153.905 97.5363" stroke="black" stroke-width="8" stroke-miterlimit="10"/>
<path d="M84.2073 35.0607C87.5294 34.488 90.9449 34.1894 94.4311 34.1894C103.868 34.1894 112.794 36.378 120.729 40.2758" stroke="black" stroke-width="8" stroke-miterlimit="10"/>
<path d="M89.1236 124.124C76.7161 120.626 65.2271 107.735 65.2271 93.9627C65.2271 77.4226 78.3693 64.0132 94.5813 64.0132C110.793 64.0132 123.936 77.4217 123.936 93.9627C123.936 101.629 121.112 108.623 116.469 113.92" stroke="black" stroke-width="8" stroke-miterlimit="10"/>
<path d="M95.2463 34.1973V93.9627H154.162" stroke="black" stroke-width="8" stroke-miterlimit="10"/>
<path d="M95.2463 130.452V153.651" stroke="black" stroke-width="8" stroke-miterlimit="10"/>
<path d="M34.7 93.9195H95.2463V104.52" stroke="black" stroke-width="8" stroke-miterlimit="10"/>
<path d="M115.173 113.536L137.225 135.588" stroke="black" stroke-width="8" stroke-miterlimit="10"/>
<path d="M52.7637 51.1273L109.211 106.591" stroke="black" stroke-width="8" stroke-miterlimit="10"/>
<path d="M126.885 61.582L60.5701 127.895" stroke="black" stroke-width="8" stroke-miterlimit="10"/>
<path d="M70.5112 47.3926C78.0755 47.3926 84.2075 41.2605 84.2075 33.6963C84.2075 26.132 78.0755 20 70.5112 20C62.947 20 56.8149 26.132 56.8149 33.6963C56.8149 41.2605 62.947 47.3926 70.5112 47.3926Z" stroke="black" stroke-width="8" stroke-miterlimit="10"/>
<path d="M132.117 61.582C139.682 61.582 145.814 55.45 145.814 47.8857C145.814 40.3215 139.682 34.1894 132.117 34.1894C124.553 34.1894 118.421 40.3215 118.421 47.8857C118.421 55.45 124.553 61.582 132.117 61.582Z" stroke="black" stroke-width="8" stroke-miterlimit="10"/>
<path d="M158.304 127.895C165.868 127.895 172 121.763 172 114.199C172 106.635 165.868 100.503 158.304 100.503C150.739 100.503 144.607 106.635 144.607 114.199C144.607 121.763 150.739 127.895 158.304 127.895Z" stroke="black" stroke-width="8" stroke-miterlimit="10"/>
<path d="M118.421 171.275C125.985 171.275 132.117 165.143 132.117 157.579C132.117 150.015 125.985 143.883 118.421 143.883C110.857 143.883 104.725 150.015 104.725 157.579C104.725 165.143 110.857 171.275 118.421 171.275Z" stroke="black" stroke-width="8" stroke-miterlimit="10"/>
<path d="M46.5713 143.722C54.1355 143.722 60.2676 137.59 60.2676 130.026C60.2676 122.462 54.1355 116.33 46.5713 116.33C39.007 116.33 32.875 122.462 32.875 130.026C32.875 137.59 39.007 143.722 46.5713 143.722Z" stroke="black" stroke-width="8" stroke-miterlimit="10"/>
<path d="M101.476 131.405C109.041 131.405 115.173 125.273 115.173 117.709C115.173 110.145 109.041 104.013 101.476 104.013C93.9121 104.013 87.78 110.145 87.78 117.709C87.78 125.273 93.9121 131.405 101.476 131.405Z" stroke="black" stroke-width="8" stroke-miterlimit="10"/>
<path d="M33.6963 83.3204C41.2605 83.3204 47.3926 77.1884 47.3926 69.6241C47.3926 62.0599 41.2605 55.9278 33.6963 55.9278C26.132 55.9278 20 62.0599 20 69.6241C20 77.1884 26.132 83.3204 33.6963 83.3204Z" stroke="black" stroke-width="8" stroke-miterlimit="10"/>
</svg>

<svg xmlns="http://www.w3.org/2000/svg" width="192" height="192" fill="none" viewBox="0 0 192 192"><path stroke="#000" stroke-miterlimit="10" stroke-width="8" d="M45.048 60.308A60.074 60.074 0 0 1 61.34 44.184M39.625 117.709a59.525 59.525 0 0 1-4.925-23.79c0-3.405.285-6.745.833-9.995M105.662 152.597a60.141 60.141 0 0 1-11.23 1.054c-14.557 0-27.896-5.207-38.259-13.859M147.537 121.287a59.988 59.988 0 0 1-22.483 23.926M141.323 56.916a59.476 59.476 0 0 1 12.839 37.004c0 1.882-.087 1.778-.257 3.616M84.207 35.06a60.142 60.142 0 0 1 10.224-.87c9.437 0 18.363 2.188 26.298 6.086M89.124 124.124c-12.408-3.498-23.897-16.389-23.897-30.161 0-16.54 13.142-29.95 29.354-29.95s29.355 13.409 29.355 29.95c0 7.666-2.824 14.66-7.467 19.957"/><path stroke="#000" stroke-miterlimit="10" stroke-width="8" d="M95.246 34.197v59.766h58.916M95.246 130.452v23.199"/><path stroke="#000" stroke-miterlimit="10" stroke-width="8" d="M34.7 93.92h60.546v10.6M115.173 113.536l22.052 22.052M52.764 51.127l56.447 55.464M126.885 61.582 60.57 127.895M70.511 47.393c7.565 0 13.697-6.133 13.697-13.697C84.207 26.132 78.075 20 70.51 20c-7.564 0-13.696 6.132-13.696 13.696 0 7.565 6.132 13.697 13.696 13.697ZM132.117 61.582c7.565 0 13.697-6.132 13.697-13.696 0-7.565-6.132-13.697-13.697-13.697-7.564 0-13.696 6.133-13.696 13.697 0 7.564 6.132 13.696 13.696 13.696ZM158.304 127.895c7.564 0 13.696-6.132 13.696-13.696s-6.132-13.696-13.696-13.696c-7.565 0-13.697 6.132-13.697 13.696s6.132 13.696 13.697 13.696ZM118.421 171.275c7.564 0 13.696-6.132 13.696-13.696s-6.132-13.696-13.696-13.696-13.696 6.132-13.696 13.696 6.132 13.696 13.696 13.696ZM46.571 143.722c7.565 0 13.697-6.132 13.697-13.696S54.135 116.33 46.57 116.33c-7.564 0-13.696 6.132-13.696 13.696s6.132 13.696 13.696 13.696ZM101.476 131.405c7.565 0 13.697-6.132 13.697-13.696s-6.132-13.696-13.697-13.696c-7.564 0-13.696 6.132-13.696 13.696s6.132 13.696 13.696 13.696ZM33.696 83.32c7.565 0 13.697-6.132 13.697-13.696S41.26 55.928 33.696 55.928C26.132 55.928 20 62.06 20 69.624S26.132 83.32 33.696 83.32Z"/></svg>
